src/24/panel/popcorntime-tray.svg

<svg xmlns="http://www.w3.org/2000/svg" width="24" height="24" version="1.1">
 <defs>
  <style id="current-color-scheme" type="text/css">
   .ColorScheme-Text { color:#dfdfdf; } .ColorScheme-Highlight { color:#4285f4; }
  </style>
 </defs>
 <path style="opacity:0.3;fill:currentColor" class="ColorScheme-Text" d="M 4.857422,4.0000002 C 4.382562,4.0000002 4,4.3825621 4,4.8574221 L 4,12 20,12 20,4.8574221 c 0,-0.47484 -0.383422,-0.8574219 -0.857422,-0.8574219 l -14.285156,0 z m 3.142578,2 a 1,1 0 0 1 1,1 1,1 0 0 1 -1,1 1,1 0 0 1 -1,-1 1,1 0 0 1 1,-1 z m 8,0 a 1,1 0 0 1 1,1 1,1 0 0 1 -1,1 1,1 0 0 1 -1,-1 1,1 0 0 1 1,-1 z M 10,9 c 2.0537,0.31733 4,0 4,0 0,1.1046 -0.8954,2 -2,2 -1.1046,0 -2,-0.8954 -2,-2 z"/>
 <path style="fill:currentColor" class="ColorScheme-Text" d="m 4,12 0,7.142578 C 4,19.617578 4.382572,20 4.857422,20 l 14.285156,0 C 19.617578,20 20,19.617578 20,19.142578 L 20,12 4,12 Z m 3.902344,1 0.195312,0 C 8.597364,13 9,13.357028 9,13.800781 l 0,4.398438 C 9,18.642973 8.597364,19 8.097656,19 L 7.902344,19 C 7.402635,19 7,18.642973 7,18.199219 L 7,13.800781 C 7,13.357028 7.402635,13 7.902344,13 Z m 4,0 0.195312,0 C 12.597364,13 13,13.357028 13,13.800781 l 0,4.398438 C 13,18.642973 12.597364,19 12.097656,19 l -0.195312,0 C 11.402635,19 11,18.642973 11,18.199219 l 0,-4.398438 C 11,13.357028 11.402635,13 11.902344,13 Z m 4,0 0.195312,0 C 16.597364,13 17,13.357028 17,13.800781 l 0,4.398438 C 17,18.642973 16.597364,19 16.097656,19 l -0.195312,0 C 15.402636,19 15,18.642973 15,18.199219 l 0,-4.398438 C 15,13.357028 15.402636,13 15.902344,13 Z"/>
</svg>

<svg xmlns="http://www.w3.org/2000/svg" width="24" height="24"><defs><style id="current-color-scheme" type="text/css">.ColorScheme-Text{color:#bebebe}</style></defs><path class="ColorScheme-Text" d="M4.857 4A.856.856 0 0 0 4 4.857V12h16V4.857A.856.856 0 0 0 19.143 4H4.857zM8 6a1 1 0 0 1 1 1 1 1 0 0 1-1 1 1 1 0 0 1-1-1 1 1 0 0 1 1-1zm8 0a1 1 0 0 1 1 1 1 1 0 0 1-1 1 1 1 0 0 1-1-1 1 1 0 0 1 1-1zm-6 3c2.054.317 4 0 4 0a2 2 0 1 1-4 0z" opacity=".3" fill="currentColor"/><path class="ColorScheme-Text" d="M4 12v7.143c0 .475.383.857.857.857h14.286a.856.856 0 0 0 .857-.857V12H4zm3.902 1h.196c.5 0 .902.357.902.8v4.4c0 .443-.403.8-.902.8h-.196c-.5 0-.902-.357-.902-.8v-4.4c0-.443.403-.8.902-.8zm4 0h.196c.5 0 .902.357.902.8v4.4c0 .443-.403.8-.902.8h-.196c-.5 0-.902-.357-.902-.8v-4.4c0-.443.403-.8.902-.8zm4 0h.196c.5 0 .902.357.902.8v4.4c0 .443-.403.8-.902.8h-.196c-.5 0-.902-.357-.902-.8v-4.4c0-.443.403-.8.902-.8z" fill="currentColor"/></svg>
